X: 32806
T: Pop Goes The Weasel
R: jig
M: 6/8
K: Gmajor
D|G2 G A2 A|BdB G2 D|G2 G A2 c|B3 G2 D|
G2 G A2 A|BdB G3|.e2 z A2 c|B3 G2||
d|g2 f e2 g|faf d2 f|g2 f efg|f3 d2 B|
c2 B c2 d|e2 f g3|.e2 z A2 c|B3 G2||

